X:2148
T:Are you ready for a fight
C:Traditional
O:Isle of Man
Z:Clague collection
N:Words[?] "Are you ready for a fight, we are the [Rovers?] We are ready for the fight, we are the Roman Soldiers." B:Kiaull Vannin #148 
L:1/4
M:4/4  
K:D
DF DF|DF A2|d3 c>B|B2 A2|dA GF|GA BB|AA GE|D2 D2||

